X: 1
T: David
C: Gianna Marzilli Ericson & Rebecca Rose Weiss (2019)
R: reel
S: Fiddle Hell Online 2021-11-05
S: https://drive.google.com/file/d/1j77sP_isrqXpCCgLQTwYaSdnxhWLpc6F/view?fbclid=IwAR0Uc3QbcRH01juFamiZfL-HfPaVhvMNKTXDb4n1m1HiOxFqNirjLBrjqqc
Z: 2021 John Chambers <jc:trillian.mit.edu>
M: 4/4
L: 1/8
K: D
|:\
"D"Adce d2AF | "G"GBAG "D"FDD2 | "D"Adce d2AF | "Em"GFED "A"E4 |
"D"Adce d2AF | "G"GBAG "D"FDDA | "G"B2g2 "D"fded | "D"Addc [1 d4 :|2 defg |
|:\
"D"afge "Bm"d2ef | "G"gefd "A"eAA2 | "G"B2g2 "D"fded | "Em"edcB A2fg |
"A"afge "Bm"d2AF | "G"GABc "D"d2cB | "A"A2g2 | "D"fded | Addc [1 defg :|2 d4 |]
